temp/images/new.svg

<svg width="128" height="128" xmlns="http://www.w3.org/2000/svg">

 <g>
  <title>background</title>
  <rect fill="none" id="canvas_background" height="402" width="582" y="-1" x="-1"/>
 </g>
 <g>
  <title>Layer 1</title>
  <path id="svg_1" fill="#388697" d="m64,12c-28.7,0 -52,23.3 -52,52s23.3,52 52,52s52,-23.3 52,-52s-23.3,-52 -52,-52zm0,100c-26.5,0 -48,-21.5 -48,-48s21.5,-48 48,-48s48,21.5 48,48s-21.5,48 -48,48z"/>
  <path id="svg_2" fill="#ed6a5a" d="m93.6,44.8c-1.1,-0.3 -2.2,0.4 -2.4,1.5l-1.2,4.8c-4.8,-9.8 -14.8,-16.1 -26,-16.1c-16,0 -29,13 -29,29c0,16 13,29 29,29c13.2,0 24.8,-8.9 28.1,-21.7c0.3,-1.1 -0.4,-2.2 -1.4,-2.4c-1.1,-0.3 -2.2,0.4 -2.4,1.4c-2.9,11 -12.9,18.7 -24.3,18.7c-13.8,0 -25,-11.2 -25,-25s11.2,-25 25,-25c10.4,0 19.6,6.3 23.3,15.9l-7.5,-1.8c-1.1,-0.3 -2.2,0.4 -2.4,1.5c-0.3,1.1 0.4,2.2 1.5,2.4l11.1,2.7c0.2,0 0.3,0.1 0.5,0.1c0.9,0 1.7,-0.6 1.9,-1.5l2.7,-10.9c0.2,-1.2 -0.4,-2.3 -1.5,-2.6z"/>
  <path stroke="null" d="m48.740856,62.814823c1.481468,0.888882 2.666645,2.074062 2.96294,2.666645c0.296295,0.59259 0.716694,0.716698 1.185177,1.185181c0.468479,0.468475 0.864468,0.410919 1.185177,1.185173c0.113388,0.273743 0.339046,0.86937 0.592587,1.481468c0.358562,0.865646 0.296295,1.185181 0.296295,1.481476l0,0.296295l0.296291,0.592583l0.59259,0.59259" id="svg_3" stroke-opacity="null" stroke-width="null" fill="none"/>
  <line stroke="null" stroke-linecap="null" stroke-linejoin="null" id="svg_4" y2="68.148117" x2="55.555619" y1="58.370413" x1="52.296384" fill-opacity="null" stroke-opacity="null" stroke-width="null" fill="none"/>
  <path d="m42.814972,60.148178c0.59259,0 2.507973,0.43391 3.555531,1.481468c1.047558,1.047558 2.582329,2.896721 4.148117,5.629585c0.931591,1.625969 2.280262,4.195343 3.555531,6.518471c1.662746,3.028984 2.37035,3.851822 2.666645,4.148117l0.296295,0.296295l0.296291,0.296295" id="svg_5" stroke-opacity="null" stroke-width="null" stroke="null" fill="none"/>
  <path stroke="null" transform="rotate(40.01070785522461 65.48146820068358,67.70367431640625) " d="m63.259266,74.073997c0.296291,0 1.007107,-0.858688 1.481472,-2.962936c0.396347,-1.758171 0.705597,-4.302269 1.777763,-6.814766c0.419296,-0.982578 0.59259,-1.481472 0.59259,-1.777767l0.592583,-0.592587l0,-0.592587" id="svg_6" stroke-opacity="null" stroke-width="null" fill="none"/>
 </g>
</svg>

<?xml version="1.0" encoding="utf-8"?>
<!-- Generator: Adobe Illustrator 13.0.0, SVG Export Plug-In . SVG Version: 6.00 Build 14948)  -->
<!DOCTYPE svg PUBLIC "-//W3C//DTD SVG 1.1//EN" "http://www.w3.org/Graphics/SVG/1.1/DTD/svg11.dtd">
<svg version="1.1" id="Layer_1" xmlns="http://www.w3.org/2000/svg" xmlns:xlink="http://www.w3.org/1999/xlink" x="0px" y="0px"
	 width="128px" height="128px" viewBox="0 0 128 128" enable-background="new 0 0 128 128" xml:space="preserve">
<g>
	<title>background</title>
	<rect id="canvas_background" x="-1" y="-1" fill="none" width="582" height="402"/>
</g>
<g>
	<title>Layer 1</title>
	<path id="svg_1" fill="#ED6A5A" d="M64,12c-28.7,0-52,23.3-52,52s23.3,52,52,52s52-23.3,52-52S92.7,12,64,12z M64,112
		c-26.5,0-48-21.5-48-48s21.5-48,48-48s48,21.5,48,48S90.5,112,64,112z"/>
	<path id="svg_2" fill="#E9B7B1" d="M93.6,44.8c-1.1-0.3-2.199,0.4-2.399,1.5L90,51.1C85.2,41.3,75.2,35,64,35c-16,0-29,13-29,29
		s13,29,29,29c13.2,0,24.8-8.9,28.1-21.7C92.4,70.2,91.7,69.1,90.7,68.9C89.6,68.6,88.5,69.3,88.3,70.3C85.4,81.3,75.4,89,64,89
		c-13.8,0-25-11.2-25-25s11.2-25,25-25c10.4,0,19.6,6.3,23.3,15.9l-7.5-1.8c-1.1-0.3-2.2,0.4-2.399,1.5C77.1,55.7,77.8,56.8,78.9,57
		L90,59.7c0.2,0,0.3,0.1,0.5,0.1c0.9,0,1.7-0.6,1.9-1.5L95.1,47.4C95.3,46.2,94.7,45.1,93.6,44.8z"/>
	<path id="svg_3" fill="none" d="M48.741,62.815c1.481,0.889,2.667,2.074,2.963,2.667c0.296,0.593,0.717,0.717,1.186,1.185
		c0.468,0.469,0.864,0.412,1.185,1.186c0.113,0.273,0.339,0.869,0.592,1.482c0.359,0.865,0.296,1.185,0.296,1.48v0.297l0.296,0.592
		l0.593,0.594"/>
	<line id="svg_4" fill="none" x1="52.296" y1="58.371" x2="55.556" y2="68.148"/>
	<path id="svg_5" fill="none" d="M42.815,60.148c0.593,0,2.508,0.434,3.556,1.481c1.047,1.048,2.582,2.897,4.148,5.63
		c0.932,1.625,2.28,4.195,3.556,6.518c1.663,3.029,2.37,3.852,2.667,4.148l0.296,0.297l0.296,0.296"/>
	<path id="svg_6" fill="none" d="M59.684,71.154c0.227,0.19,1.324-0.01,3.04-1.316c1.434-1.092,3.306-2.842,5.743-4.077
		c0.953-0.483,1.406-0.754,1.597-0.981l0.835-0.072l0.381-0.454"/>
</g>
</svg>
